X:925
T:Far From Home
M:C|
L:1/8
K:G
GEDE G3 A| B2 BA Bc d2 |GEDE G2 B2 | AGAB AGED |
GEDE G3 A | B2 BA Bc d2 |edef gedc|BGAB G3 z:|
| g2 ge f2 fd | e2 ef edBG | gedB GABG | A2 AB AGED |
GEDE G3A | B2 BA Bc d2 |edef gedc|BGAB G3 z :|
